X:1
T:Title
%%score 1 2 3
L:1/8
M:2/2
K:C
V:1 treble nm="Part_1"
V:2 treble-8 nm="Part_2"
V:3 bass nm="Part_3"
V:1
 F8 | G8 | A4 _B4 | G4 A4- | A4 F4 | G8 | A4 _B4- | B4 c4- | c4 A4- | A4 G4 | A8 | z8 | A8 | %13
 G4 F4 | E8 | F8 | G8 | G8 | z8 | C8 | D4 E4 | C4 F4 | E4 G4- | G4 F4- | F4 E4 | F8 | z4 F4- | %27
 F4 A4 | G4 A4- | A4 F4 | G6 F2 | E2 D2 E4 | F4 D4- | D2 C2 C4 | _B,4 D4- | D4 C4 | D8 |] %37
V:2
 c4 d4 | e8 | z4 d4 | d6 _B2 | c8 | d4 _B4 | A4 G4- | G4 F4 | A4 D4 | _E8 | F4 D4- | D4 d4- | %12
 d4 _B4 | G4 A4 | c8 | A8 | G8 | c8 | C8 | F8 | D4 C4 | F4 D4 | z4 d4- | d4 c4- | c4 B4 | c8- | %26
 c8 | d8 | G4 F4 | D8 | z4 E4 | G4 A4- | A8 | A4 _B4 | D4 A4- | A4 G4 | A8 |] %37
V:3
 F,8 | E,8 | F,4 G,4- | G,2 F,2 D,4 | A,8 | _B,4 C4- | C4 D4 | _B,4 A,4 | C4 D4 | _B,8 | A,8 | %11
 F,8 | D,8 | E,4 D,4 | C,4 A,,4 | D,8 | E,8 | C,8 | G,8 | A,8 | B,4 C4 | A,8 | G,4 B,4- | B,4 A,4 | %24
 G,8 | F,8- | F,8 | D,8 | E,4 D,4 | F,8 | E,4 C,4- | C,4 A,,4 | D,8 | F,4 G,4 | F,4 D,4 | E,8 | %36
 D,8 |] %37

